X: 1
T: d'Hammerschmiedsgesell'n
T: der Hammerschmieds Gesellschaft
O: Germany
Z: John Chambers <jc@trillian.mit.edu> http://trillian.mit.edu/~jc/music/
N: C instruments play Bb-F-C; Bb instruments play C-G-D.
M: 3/4
L: 1/4
K: Bb
P: Intro
(3[c/B][^c/A][d/_A] | "Eb"[eG][eG][eG] | "Bb"[dF][dF][dF] | "F7"[cE][cE][AE] | "Bb"[BD]z ||
P: Bb
|: "slow"(3F/G/A/ | "Bb"BAB | FGB | "F7"AAA | e2B | AAA | e2A | "Bb"BBB | d2 :|
|: "faster"F | "Eb"G2e | e2e | "Bb"ddd | B2B | "F7"ccc |1 A2F | "Bb"ddd | B2 :|2 AGA | "Bb"B>BB | B2 |]
P: F
K: F
|: (3C/D/E/ | "F"FEF | CDF | "C7"EEE | B2F | EEE | B2E | "F"FFF | A2 :|
|: C | "Bb"D2B | B2B | "F"AAA | F2F | "C7"GGG |1 E2C | "F"AAA | F2 :|2 EDE | "F"F>FF | F2 |]
P: C
K: C
|: (3G/A/B/ | "C"cBc | GAc | "G7"BBB | f2c | BBB | f2B | "C"ccc | e2 :|
|: G | "F"A2f | f2f | "C"eee | c2c | "G7"ddd |1 B2G | "C"eee | c2 :|2 BAB | "C"c>cc | c2 |]
P: G
K: G
|: (3D/E/F/ | "G"GFG | DEG | "D7"FFF | c2G | FFF | c2F | "G"GGG | B2 :|
|: D | "C"E2c | c2c | "G"BBB | G2G | "D7"AAA |1 F2D | "G"BBB | G2 :|2 FEF | "G"G>GG | G2 |]
P: D
K: D
|: (3A/B/c/ | "D"dcd | ABd | "A7"ccc | g2d | ccc | g2c | "D"ddd | f2 :|
|: A | "G"B2g | g2g | "D"fff | d2d | "A7"eee |1 c2A | "D"fff | d2 :|2 cBc | "D"d>dd | d2 |]

